!!!OTL: WAR EINST EIN RIESE GOLIATH
!!!ARE: Europa, Mitteleuropa, Deutschland
!!!SCT: B0645
!!!YEM: Copyright 1995, estate of Helmut Schaffrath.
**kern
*ICvox
*Ivox
*M2/4
*k[f#c#]
*D:
{8d
=1
8.d
16e
8f#
8g
=2
8a
8f#
8d}
{8a
=3
8.b
16a
8b
8cc#
=4
4dd
8r}
{8dd
=5
8.cc#
16b
8a
8g
=6
8f#
8e
8d}
{8ff#
=7
8.ee
16dd
8cc#
8b
=8
4a
8r}
{8a
=9
8.b
16a
8dd
8a
=10
8b
8b
8a
16r}
{16g
=11
16f#
16g
16a
16g
8f#
8e
=12
4d
8r}
==
!!!AGN: Kinder - Lied, Sage, religioes
!!!ONB: ESAC (Essen Associative Code) Database: BOEHME
!!!AMT: simple duple
!!!AIN: vox
!!!EED: Helmut Schaffrath
!!!EEV: 1.0
*-
